src/assets/img/app-icons/logo-pictos-color.svg

<svg width="168" height="34" viewBox="0 0 168 34" fill="none" xmlns="http://www.w3.org/2000/svg">
<path d="M29.7394 0H36.3481V33.0437H29.7394V0Z" fill="#041C42"/>
<path d="M85.9137 6.60875H92.5224V33.0437H85.9137V6.60875Z" fill="#041C42"/>
<path d="M76.0005 0H102.436V6.60875H76.0005V0Z" fill="#041C42"/>
<path d="M0 0H6.60874V33.0437H0V0Z" fill="#041C42"/>
<path d="M11.5653 0H6.60874V23.1306H11.5653C11.5653 23.1306 11.5653 23.1306 11.5653 23.1306C17.9526 23.1306 23.1307 17.9526 23.1307 11.5653C23.1307 5.17796 17.9526 0 11.5653 0C11.5653 0 11.5653 0 11.5653 0Z" fill="#041C42"/>
<path d="M73.3812 25.4527C70.4416 30.0193 65.3133 33.0437 59.4787 33.0437C50.354 33.0437 42.9569 25.6466 42.9569 16.5219C42.9569 7.39709 50.354 0 59.4787 0C65.3133 0 70.4416 3.0244 73.3812 7.59102L66.9477 10.0036C65.1305 7.92309 62.4581 6.60875 59.4787 6.60875C54.0039 6.60875 49.5656 11.047 49.5656 16.5219C49.5656 21.9967 54.0039 26.435 59.4787 26.435C62.4581 26.435 65.1305 25.1206 66.9477 23.0401L73.3812 25.4527Z" fill="#041C42"/>
<path d="M138.784 16.5219C138.784 25.6466 131.387 33.0437 122.262 33.0437C113.137 33.0437 105.74 25.6466 105.74 16.5219C105.74 7.39709 113.137 0 122.262 0C131.387 0 138.784 7.39709 138.784 16.5219Z" fill="#041C42"/>
<path d="M164.882 8.05234L167.187 2.64714C161.011 -0.964875 155.55 -0.149297 152.535 0.855539C149.519 1.86037 147.275 5.57258 146.888 9.19047C146.271 14.9525 150.629 17.4683 153.672 18.5232C156.715 19.5782 161.585 20.2374 161.109 23.8581C160.74 26.657 158.31 27.0439 155.454 27.0872C152.282 27.1353 148.667 23.6889 148.667 23.6889L145.392 27.9616C149.864 33.9924 159.708 34.7291 164.813 29.7789C167.193 27.4703 168.123 25.5716 167.987 22.2584C167.768 16.9416 161.415 14.1956 158.769 13.7851C156.123 13.3745 152.819 11.2809 153.672 8.5611C154.348 6.40377 156.006 5.75832 158.769 5.81631C161.532 5.87431 164.882 8.05234 164.882 8.05234Z" fill="#041C42"/>
</svg>

<?xml version="1.0" encoding="UTF-8"?>
<svg version="1.1" viewBox="0 0 168 34" xmlns="http://www.w3.org/2000/svg">
  <g fill="#041C42">
    <path d="M29.7394 0H36.3481V33.0437H29.7394V0Z"/>
    <path d="m85.914 6.6088h6.6087v26.435h-6.6087v-26.435z"/>
    <path d="m76 0h26.436v6.6088h-26.436v-6.6088z"/>
    <path d="M0 0H6.60874V33.0437H0V0Z"/>
  </g>
  <path d="m11.565 0h-10.957v23.131h10.957c6.3873 0 11.565-5.178 11.565-11.565 0-6.3873-5.1781-11.565-11.565-11.565z" fill="#041c42"/>
  <g fill="#041C42">
    <path d="m73.381 25.453c-2.9396 4.5666-8.0679 7.591-13.902 7.591-9.1247 0-16.522-7.3971-16.522-16.522 0-9.1248 7.3971-16.522 16.522-16.522 5.8346 0 10.963 3.0244 13.902 7.591l-6.4335 2.4126c-1.8172-2.0805-4.4896-3.3948-7.469-3.3948-5.4748 0-9.9131 4.4382-9.9131 9.9132 0 5.4748 4.4383 9.9131 9.9131 9.9131 2.9794 0 5.6518-1.3144 7.469-3.3949l6.4335 2.4126z"/>
    <path d="m138.78 16.522c0 9.1247-7.397 16.522-16.522 16.522s-16.522-7.3971-16.522-16.522c0-9.1248 7.397-16.522 16.522-16.522s16.522 7.3971 16.522 16.522z"/>
    <path d="m164.88 8.0523 2.305-5.4052c-6.176-3.612-11.637-2.7964-14.652-1.7916-3.016 1.0048-5.26 4.717-5.647 8.3349-0.617 5.762 3.741 8.2778 6.784 9.3327 3.043 1.055 7.913 1.7142 7.437 5.3349-0.369 2.7989-2.799 3.1858-5.655 3.2291-3.172 0.0481-6.787-3.3983-6.787-3.3983l-3.275 4.2727c4.472 6.0308 14.316 6.7675 19.421 1.8173 2.38-2.3086 3.31-4.2073 3.174-7.5205-0.219-5.3168-6.572-8.0628-9.218-8.4733-2.646-0.4106-5.95-2.5042-5.097-5.224 0.676-2.1573 2.334-2.8028 5.097-2.7448 2.763 0.058 6.113 2.236 6.113 2.236z"/>
  </g>
</svg>
